X:221
T:Spider Bit the Fiddler
C:Bobby Clark solo
N:From "One Legged Gypsy" 
L:1/8
Q:1/4=220
M:4/4
K:F
z8 | z2 Ac de fg | "Dm"ag fe de fa | "C"gf ed ce dc | "G"=Bc de fg fe | dc =B2 z2 GA | 
"Gm"B2 Bc dc BG | "Dm"Ac de fe d2 | "E"fe d"A7"f zd [a2_d2] | z2 Ac de fg | "Dm"ag fe de fa | 
"C"gf ed ce dc | "G"=Bc de fg fe | dc =B2 z2 GA | "Gm"B2 Bc dc BG | "Dm"Ac de fe d2 | 
"A"c=B ce _de =d2 | "Dm"ze fd _g=g ac' | "Bb"b2 bc' d'2 bc' | d'f' d'c' (3bad gb | 
"F"ab c'd' c'b ac' | (3bad gb ag (3fgf | "A"e2 ef e4 | z2 ab ag fe | "Dm"d2 de fd ef | 
"D"_gd g=g ab c'a | "Bb"b2 bc' d'2 bc' | d'f' d'c' (3bad gb | "F"ab c'd' c'b ac' | 
(3bad gb ag (3fgf | "A"e2 ef e4 | z2 ab ag fe | "Dm"d2 (3dfg (3_agf dc | d8 | 
 

